!!!CDT:
!!!PTL: Il primo libro de madrigali a sei voci
!!!PPP: Venice
!!!PPR: Angelo Gardano
!!!PDT: 1590
!!!PUB-format:
!!!RISM: B 1715
!!!rime: 443
!!!AGN: Madrigal
!!!SCT: Trm0443b
!!!SCA: Trm0443b
!!!original-voices: 6
!!!extant-voices: 1
!!!complete: N
!!!final: G?
!!!COM: Bellasio, Paolo
!!!OTL: Questa vita è la selva, il verde e l'ombra
**kern	**text
*part1	*part1
*staff1	*staff1
*I"Alto	*
*I'A	*
*oclefC2	*
*clefG2	*
*k[]	*
*omet(C)	*
*M4/2	*
=1	=1
1r	.
[1g	Que-
=2	=2
2g]	.
2g	-sta
1g	vi-
=3	=3
2g	-ta è
2a	la
1g	sel-
=4	=4
1f#X	-va,
2g	il
4fnXi	ver-
4e	-de e
=5	=5
2d	l'om-
2a	-bre
1r	.
=6	=6
4r	.
2g	Son
4f	fal-
2a	-la-
4g	-ci
4g	spe-
=7	=7
2f#X	-ran-
4f#i	-ze,
4f#i	E
2f#X	son
4g	le
[4a	re-
=8	=8
8a]L	.
8gJ	.
4.g	.
16f#iL	.
16eJ	.
4f#X	.
2g	-ti
2r	.
=9	=9
0r	.
=10	=10
1r	.
2e	E
[2g	son-
=11	=11
2g]	.
2.a	-hi-
4a	-spi-
2a	-di
=12	=12
2a	du-
4g	.
4f	.
2g	.
[2a	-mi
=13	=13
2a]	.
2g	Cru-
1a	-de
=14	=14
2b	vo-
2cc	-glie e
2a	co-
[2g	-stu-
=15	=15
2g]	.
2f#X	.
4g	-mi;
4d	La
2g	fe-
=16	=16
4g	-ra è
2g	la
4a	mia
1g	Don-
=17	=17
2g	-na,
2r	.
1r	.
=18	=18
2r	.
2e	A-
4d	-mor
4e	l'ar-
2a	-cie-
=19	=19
2.b	-ro,
4b	A-
4a	-mor
4g	l'ar-
2a	-cie-
=20	=20
1b	-ro,
2r	.
2g	Il
=21	=21
8cL	vel-
8d	.
8e	.
8cJ	.
4f	.
4e	-tr'il
4d	mio
4c	pen-
2d	-sie-
=22	=22
2e	-ro.
2r	.
4d	El-
4d	-la
4g	rat-
8g	-ta
8f	se'n
=23	=23
4.e	va
8d	sen-
8e	-za
8e	ri-
8fL	-te-
8gJ	.
8aL	.
8bJ	.
2cc	.
4f	-gno,
=24	=24
4r	.
4e	Né
8f	fug-
8e	-ge
8f	per
8d	ti-
4e	-mor
4e	ma
4.c	per
8g	di-
=25	=25
4f#X	-sde-
4g	-gno,
4g	ma
4.a	per
8fnXi	di-
4g	-sde-
2a	-gno,
=26	=26
1r	.
4r	.
4g	Non
4a	ser-
4b	-vi-
=27	=27
4cc	-tù
4a	ma
2b-X	pa-
2a	-ce,
4r	.
4g	Non
=28	=28
4cc	ser-
4a	-vi-
4g	-tù
2a	ma
2g	pa-
4f#X	.
=29	=29
2g	-ce;
2d	E
2g	quan-
4g	-t'è
[4g	più
=30	=30
4g]	.
4a	su-
2g	-per-
1g	-ba,
=31	=31
1r	.
2r	.
4r	.
4g	E
=32	=32
2g	quan-
4g	-t'è
2g	più
4g	su-
4g	-per-
4b	-ba è
=33	=33
4b	più
4b	fu-
2a	-ga-
4b	-ce,è
4g	più
8gL	fu-
8f	.
8e	.
8dJ	.
=34	=34
4c	.
4e	.
4g	-ga-
8g	-ce,
8g	è
8gL	più
8f	.
8e	.
8dJ	.
4c	.
4g	fu-
=35	=35
2g	-ga-
2g	-ce,
1r	.
=36	=36
4r	.
4e	su-
4a	-per-
4g	-ba è
4.g	più
8f	fu-
8eL	-ga-
8d	.
8c	.
8dJ	.
=37	=37
4e	.
4d	.
2d	.
1dl	-ce.
==	==
*-	*-
!!!RDF**kern: i = editorial accidental
!!!RDF**kern: l = terminal long
!!!ENC: Emiliano Ricciardi
!!!END: 2018
!!!EED: Ricciardi, Emiliano
!!!EEV: 2018/09/18
!!!YEC: Copyright 2018 Emiliano Ricciardi, All Rights Reserved
!!!ONB: Translated from MusicXML on 2018/09/18 and edited by Craig Stuart Sapp
!!@@BEGIN:	VERSEDATA
!!@SOLERTI:	443
!!@CATALOGNUM:	Trm0443
!!@LAST_MODIFIED: 2020/07/12
!!@TITLE:		Questa vita è la selva, il verde e l'ombra
!!@GENRE:		madrigale
!!@MANUSRC:	E<sub>2</sub>, M<sub>7</sub>, N<sub>3</sub>
!!@PRINTSRC:	28, 50, 78, 141, 164, 166, 169
!!@@BEGIN:	VERSES
!!@ABOUTIT:	[Ad istanza del signor Curzio Ardizio]
!!@ABOUTEN:	[On behald of sir Curzio Ardizio]
!!@EDITOR:	Solerti, Angelo
!!@EDITION_TITLE: Le Rime di Torquato Tasso
!!@EDITION_LOC:	Bologna
!!@EDITION_PUB:	Romagnoli-Dall’Acqua
!!@EDITION_DATE:  1898-1902
!!@EDITION_VOL:	2
!!@EDITION_PAGE:  474
!!@TRANSLATOR:	Maria Pastore Passaro; adapted by Emiliano Ricciardi and Amyrose McCue Gill
!!@VERSE:
!!	Questa vita è la selva, il verde e l'ombra
!!	Son fallaci speranze, e son le reti
!!	Piacer dolci e secreti,
!!	E sono ispidi dumi
!!	Crude voglie e costumi;
!!	La fera è la mia donna, Amor l'arciero,
!!	Il veltro il mio pensiero.
!!	Ella ratta se 'n va senza ritegno,
!!	Né fugge per timor ma per disdegno,
!!	Non servitù ma pace;
!!	E quanto è più superba è più fugace.
!!@TVERSE:
!!	This life is the forest, the green and the shade
!!	Are flawed hopes, and the nets are
!!	Pleasures sweet and secret,
!!	And the prickly thorns are
!!	Pitiless desires and habits:
!!	The wild beast is my lady, Love the archer,
!!	The greyhound my thought.
!!	She rushes off, without restraint,
!!	Nor flies for fear, but for disdain,
!!	Not servitude but peace;
!!	And the more proud she is, the more quick to flee.
!!@@END:		VERSES
!!@OTHER_CRIT_ED:   None
!!@ATTRIBUTION_ABOUT:	Secure
!!		<br>
!!		Among other sources, this poem appears in the authoritative manuscript It. 379a, Biblioteca Estense Universitaria, Modena, Italy (see Literary Sources).
!!@DATING:	Mid-1580s?
!!@DEDICATEE:	Ardizio, Curzio
!!@DEDICATEE_INFO:	Ardizio, Curzio (on behalf of)
!!@COMMENTARY:
!!@@END:		VERSEDATA
!!@@BEGIN:	SETTING
!!@CATALOGNUM:	Trm0443b
!!@RIMETITLE:	Questa vita è la selva, il verde e l'ombra
!!@SOLERTI:	443
!!@COMPOSER:	Bellasio, Paolo
!!@PRINCEPSTITLE:	Il primo libro de madrigali a sei voci
!!@PRINCEPSLOC:	Venetia
!!@NORMLOC:	Venice
!!@NORMPUB:	Angelo Gardano
!!@NORMPUBSHORT:	Gardano
!!@PRINCEPSPUB:	Gardano
!!@PRINCEPSYEAR:	1590
!!@PRINCEPSRISM:	B 1715
!!@REPRINTS:	
!!@OVOICES:	6
!!@EXTANTVOICES:	1
!!@PARTBOOKS:	
!!@EXTPARTBOOKS:	
!!@OCLEFS:	C2
!!@OMENSURATION:	C
!!@OKEYSIG:	-
!!@FINAL:	G?
!!@TIMPEDITOR:	Ricciardi, Emiliano
!!@NOTE:		
!!@@END:		SETTING
